images/footer-logo.svg

<svg width="181" height="59" viewBox="0 0 181 59" fill="none" xmlns="http://www.w3.org/2000/svg">
<path d="M84.6035 24.6777L84.4717 24.7363C83.71 24.0332 82.792 23.4717 81.7178 23.0518C80.6533 22.6318 79.4814 22.4219 78.2021 22.4219C76.9717 22.4219 75.8438 22.6172 74.8184 23.0078C73.793 23.3887 72.9092 23.9453 72.167 24.6777C71.4346 25.4102 70.8633 26.3086 70.4531 27.373C70.043 28.4375 69.8379 29.6484 69.8379 31.0059C69.8379 32.5 70.0332 33.8965 70.4238 35.1953C70.8145 36.4844 71.3955 37.6025 72.167 38.5498C72.9385 39.4971 73.9004 40.2441 75.0527 40.791C76.2148 41.3281 77.5674 41.5967 79.1104 41.5967C79.667 41.5967 80.2236 41.5381 80.7803 41.4209C81.3369 41.3037 81.8691 41.1328 82.377 40.9082C82.8945 40.6738 83.3779 40.3955 83.8271 40.0732C84.2861 39.7412 84.7012 39.3652 85.0723 38.9453L85.2334 39.0479L84.0615 42.0361C83.3291 42.3193 82.5186 42.5342 81.6299 42.6807C80.751 42.8369 79.8623 42.915 78.9639 42.915C77.1572 42.915 75.502 42.6562 73.998 42.1387C72.5039 41.6113 71.2148 40.8691 70.1309 39.9121C69.0566 38.9551 68.2168 37.8076 67.6113 36.4697C67.0156 35.1221 66.7178 33.6279 66.7178 31.9873C66.7178 31.0596 66.835 30.1465 67.0693 29.248C67.3135 28.3496 67.665 27.4951 68.124 26.6846C68.583 25.874 69.1494 25.1318 69.8232 24.458C70.4971 23.7744 71.2637 23.1836 72.123 22.6855C72.9922 22.1875 73.9443 21.8018 74.9795 21.5283C76.0244 21.2451 77.1523 21.1035 78.3633 21.1035C80.248 21.1035 81.9961 21.3916 83.6074 21.9678L84.6035 24.6777ZM86.9033 38.1396C86.9033 37.3682 87.0596 36.6992 87.3721 36.1328C87.6943 35.5664 88.1191 35.083 88.6465 34.6826C89.1738 34.2822 89.7744 33.96 90.4482 33.7158C91.1221 33.4619 91.8203 33.2666 92.543 33.1299C93.2656 32.9834 93.9785 32.8857 94.6816 32.8369C95.3848 32.7783 96.0293 32.7441 96.6152 32.7344V31.9873C96.6152 31.3428 96.5322 30.7861 96.3662 30.3174C96.2002 29.8486 95.9658 29.4629 95.6631 29.1602C95.3604 28.8477 94.9941 28.6182 94.5645 28.4717C94.1445 28.3154 93.6807 28.2373 93.1729 28.2373C92.8213 28.2373 92.4746 28.2666 92.1328 28.3252C91.791 28.3838 91.4346 28.4814 91.0635 28.6182C90.7021 28.7549 90.3164 28.9404 89.9062 29.1748C89.5059 29.4092 89.0713 29.707 88.6025 30.0684L88.4561 29.9805L89.4521 27.915C89.7744 27.7686 90.0918 27.6514 90.4043 27.5635C90.7168 27.4658 91.0342 27.3877 91.3564 27.3291C91.6787 27.2705 92.0059 27.2314 92.3379 27.2119C92.6797 27.1826 93.0361 27.168 93.4072 27.168C94.4326 27.168 95.3066 27.2949 96.0293 27.5488C96.7617 27.793 97.3574 28.1348 97.8164 28.5742C98.2852 29.0039 98.627 29.5117 98.8418 30.0977C99.0566 30.6738 99.1641 31.2939 99.1641 31.958V36.7334C99.1641 37.5635 99.1738 38.291 99.1934 38.916C99.2227 39.5312 99.252 40.0635 99.2812 40.5127C99.3203 40.9619 99.3643 41.3379 99.4131 41.6406C99.4717 41.9434 99.5303 42.1973 99.5889 42.4023V42.4609H96.3516V42.4023C96.4004 42.2461 96.4346 42.0703 96.4541 41.875C96.4834 41.6797 96.5078 41.4453 96.5273 41.1719C96.3223 41.3477 96.0781 41.5283 95.7949 41.7139C95.5215 41.8994 95.2041 42.0703 94.8428 42.2266C94.4912 42.373 94.0957 42.4902 93.6562 42.5781C93.2266 42.6758 92.7529 42.7246 92.2354 42.7246C90.5361 42.7246 89.2227 42.3291 88.2949 41.5381C87.3672 40.7373 86.9033 39.6045 86.9033 38.1396ZM96.6152 33.877C95.7266 33.8867 94.8721 33.9404 94.0518 34.0381C93.2314 34.126 92.5039 34.3164 91.8691 34.6094C91.2441 34.9023 90.7412 35.3223 90.3604 35.8691C89.9893 36.4062 89.8037 37.124 89.8037 38.0225C89.8037 39.1748 90.0918 40.0537 90.668 40.6592C91.2441 41.2646 92.04 41.5674 93.0557 41.5674C93.5244 41.5674 93.9492 41.5039 94.3301 41.377C94.7207 41.2402 95.0625 41.0742 95.3555 40.8789C95.6582 40.6738 95.9121 40.4541 96.1172 40.2197C96.3223 39.9756 96.4785 39.7412 96.5859 39.5166C96.6055 39.1455 96.6152 38.7354 96.6152 38.2861C96.6152 37.8271 96.6152 37.3096 96.6152 36.7334V33.877ZM103.603 33.1885C103.603 32.3584 103.588 31.6357 103.559 31.0205C103.539 30.3955 103.51 29.8584 103.471 29.4092C103.441 28.96 103.397 28.584 103.339 28.2812C103.29 27.9785 103.236 27.7246 103.178 27.5195V27.4609H106.562V27.5195C106.483 27.7441 106.415 28.0176 106.356 28.3398C106.308 28.6621 106.269 29.0771 106.239 29.585C106.601 29.2822 106.977 28.9844 107.367 28.6914C107.758 28.3984 108.158 28.1396 108.568 27.915C108.979 27.6904 109.394 27.5098 109.813 27.373C110.243 27.2363 110.673 27.168 111.103 27.168C111.366 27.168 111.596 27.1826 111.791 27.2119C111.986 27.2314 112.162 27.2656 112.318 27.3145C112.475 27.3535 112.616 27.4023 112.743 27.4609C112.87 27.5098 112.992 27.5586 113.109 27.6074L112.392 30.4053L112.143 30.3467C112.025 29.917 111.806 29.5752 111.483 29.3213C111.161 29.0576 110.722 28.9258 110.165 28.9258C109.862 28.9258 109.545 28.9795 109.213 29.0869C108.881 29.1943 108.544 29.3457 108.202 29.541C107.86 29.7266 107.519 29.9463 107.177 30.2002C106.835 30.4443 106.503 30.7031 106.181 30.9766C106.161 31.2598 106.151 31.5674 106.151 31.8994C106.151 32.2314 106.151 32.583 106.151 32.9541V36.7334C106.151 37.5635 106.161 38.291 106.181 38.916C106.2 39.5312 106.229 40.0635 106.269 40.5127C106.308 40.9619 106.352 41.3379 106.4 41.6406C106.449 41.9434 106.503 42.1973 106.562 42.4023V42.4609H103.178V42.4023C103.236 42.1973 103.29 41.9434 103.339 41.6406C103.397 41.3379 103.441 40.9619 103.471 40.5127C103.51 40.0635 103.539 39.5312 103.559 38.916C103.588 38.291 103.603 37.5635 103.603 36.7334V33.1885ZM121.942 42.7246C120.858 42.7246 119.843 42.5537 118.896 42.2119C117.948 41.8701 117.123 41.3721 116.42 40.7178C115.717 40.0537 115.16 39.2383 114.75 38.2715C114.35 37.2949 114.149 36.1816 114.149 34.9316C114.149 33.8281 114.335 32.8076 114.706 31.8701C115.077 30.9229 115.59 30.1025 116.244 29.4092C116.898 28.7158 117.66 28.1738 118.529 27.7832C119.408 27.3926 120.355 27.1973 121.371 27.1973C122.377 27.1973 123.31 27.373 124.169 27.7246C125.028 28.0664 125.771 28.5693 126.396 29.2334C127.03 29.8877 127.528 30.7031 127.89 31.6797C128.261 32.6465 128.461 33.75 128.49 34.9902C127.387 34.9707 126.283 34.9561 125.18 34.9463C124.076 34.9365 122.929 34.9316 121.737 34.9316C120.888 34.9316 120.058 34.9365 119.247 34.9463C118.446 34.9561 117.724 34.9707 117.079 34.9902C117.138 36.0059 117.294 36.9238 117.548 37.7441C117.812 38.5645 118.168 39.2676 118.617 39.8535C119.076 40.4297 119.628 40.874 120.272 41.1865C120.927 41.499 121.664 41.6553 122.484 41.6553C123.051 41.6553 123.583 41.5918 124.081 41.4648C124.589 41.3281 125.048 41.1426 125.458 40.9082C125.868 40.6738 126.234 40.4004 126.557 40.0879C126.879 39.7656 127.152 39.4189 127.377 39.0479L127.553 39.1357L126.469 41.7432C125.941 42.0166 125.312 42.251 124.579 42.4463C123.847 42.6318 122.968 42.7246 121.942 42.7246ZM119.994 33.7891C120.971 33.7891 121.947 33.7891 122.924 33.7891C123.91 33.7793 124.804 33.7598 125.604 33.7305C125.517 32.8809 125.351 32.1191 125.106 31.4453C124.862 30.7715 124.55 30.2002 124.169 29.7314C123.788 29.2627 123.339 28.9014 122.821 28.6475C122.304 28.3936 121.732 28.2666 121.107 28.2666C120.541 28.2666 120.019 28.3936 119.54 28.6475C119.071 28.8916 118.661 29.248 118.31 29.7168C117.958 30.1855 117.675 30.7617 117.46 31.4453C117.245 32.1191 117.118 32.8906 117.079 33.7598C117.519 33.7793 117.982 33.7891 118.471 33.7891C118.959 33.7891 119.467 33.7891 119.994 33.7891ZM141.029 33.1885C141.029 32.1045 141.005 31.1914 140.956 30.4492C140.917 29.6973 140.868 29.082 140.81 28.6035H134.687V36.7334C134.687 37.5635 134.696 38.291 134.716 38.916C134.745 39.5312 134.774 40.0635 134.804 40.5127C134.843 40.9619 134.887 41.3379 134.936 41.6406C134.994 41.9434 135.053 42.1973 135.111 42.4023V42.4609H131.728V42.4023C131.786 42.1973 131.84 41.9434 131.889 41.6406C131.938 41.3379 131.981 40.9619 132.021 40.5127C132.06 40.0635 132.089 39.5312 132.108 38.916C132.128 38.291 132.138 37.5635 132.138 36.7334V28.6035L129.677 28.6914V27.4023C129.979 27.4219 130.341 27.4365 130.761 27.4463C131.181 27.4561 131.64 27.4609 132.138 27.4609V25.7764C132.138 25.0928 132.221 24.4824 132.387 23.9453C132.562 23.4082 132.797 22.9395 133.09 22.5391C133.393 22.1387 133.739 21.7969 134.13 21.5137C134.53 21.2305 134.95 21.001 135.39 20.8252C135.829 20.6494 136.278 20.5225 136.737 20.4443C137.196 20.3662 137.646 20.3271 138.085 20.3271C138.573 20.3271 139.027 20.3467 139.447 20.3857C139.867 20.4248 140.243 20.4736 140.575 20.5322C140.907 20.5908 141.19 20.6494 141.425 20.708C141.669 20.7666 141.854 20.8154 141.981 20.8545L142.553 23.3447L142.377 23.4473C142.182 23.2031 141.947 22.9639 141.674 22.7295C141.4 22.4951 141.083 22.2852 140.722 22.0996C140.37 21.9043 139.97 21.748 139.521 21.6309C139.071 21.5137 138.573 21.4551 138.026 21.4551C137.782 21.4551 137.47 21.4941 137.089 21.5723C136.718 21.6504 136.352 21.8262 135.99 22.0996C135.639 22.3633 135.331 22.7637 135.067 23.3008C134.813 23.8281 134.687 24.5459 134.687 25.4541V27.4609C136.024 27.4512 137.24 27.4414 138.334 27.4316C139.428 27.4121 140.375 27.3926 141.176 27.373C141.986 27.3535 142.631 27.334 143.109 27.3145C143.598 27.2852 143.9 27.2559 144.018 27.2266C143.92 27.7246 143.842 28.1982 143.783 28.6475C143.725 29.0967 143.681 29.5557 143.651 30.0244C143.622 30.4932 143.603 30.9863 143.593 31.5039C143.583 32.0117 143.578 32.5732 143.578 33.1885V36.7334C143.578 37.5635 143.588 38.291 143.607 38.916C143.627 39.5312 143.656 40.0635 143.695 40.5127C143.734 40.9619 143.778 41.3379 143.827 41.6406C143.876 41.9434 143.93 42.1973 143.988 42.4023V42.4609H140.604V42.4023C140.663 42.1973 140.717 41.9434 140.766 41.6406C140.824 41.3379 140.868 40.9619 140.897 40.5127C140.937 40.0635 140.966 39.5312 140.985 38.916C141.015 38.291 141.029 37.5635 141.029 36.7334V33.1885ZM148.163 33.1885C148.163 32.3584 148.148 31.6357 148.119 31.0205C148.1 30.3955 148.07 29.8584 148.031 29.4092C148.002 28.96 147.958 28.584 147.899 28.2812C147.851 27.9785 147.797 27.7246 147.738 27.5195V27.4609H151.122V27.5195C151.044 27.7441 150.976 28.0176 150.917 28.3398C150.868 28.6621 150.829 29.0771 150.8 29.585C151.161 29.2822 151.537 28.9844 151.928 28.6914C152.318 28.3984 152.719 28.1396 153.129 27.915C153.539 27.6904 153.954 27.5098 154.374 27.373C154.804 27.2363 155.233 27.168 155.663 27.168C155.927 27.168 156.156 27.1826 156.352 27.2119C156.547 27.2314 156.723 27.2656 156.879 27.3145C157.035 27.3535 157.177 27.4023 157.304 27.4609C157.431 27.5098 157.553 27.5586 157.67 27.6074L156.952 30.4053L156.703 30.3467C156.586 29.917 156.366 29.5752 156.044 29.3213C155.722 29.0576 155.282 28.9258 154.726 28.9258C154.423 28.9258 154.105 28.9795 153.773 29.0869C153.441 29.1943 153.104 29.3457 152.763 29.541C152.421 29.7266 152.079 29.9463 151.737 30.2002C151.396 30.4443 151.063 30.7031 150.741 30.9766C150.722 31.2598 150.712 31.5674 150.712 31.8994C150.712 32.2314 150.712 32.583 150.712 32.9541V36.7334C150.712 37.5635 150.722 38.291 150.741 38.916C150.761 39.5312 150.79 40.0635 150.829 40.5127C150.868 40.9619 150.912 41.3379 150.961 41.6406C151.01 41.9434 151.063 42.1973 151.122 42.4023V42.4609H147.738V42.4023C147.797 42.1973 147.851 41.9434 147.899 41.6406C147.958 41.3379 148.002 40.9619 148.031 40.5127C148.07 40.0635 148.1 39.5312 148.119 38.916C148.148 38.291 148.163 37.5635 148.163 36.7334V33.1885ZM166.562 30.4053L166.356 30.4346C166.288 30.21 166.176 29.9707 166.02 29.7168C165.873 29.4629 165.678 29.2285 165.434 29.0137C165.199 28.7988 164.911 28.623 164.569 28.4863C164.237 28.3398 163.852 28.2666 163.412 28.2666C163.109 28.2666 162.821 28.3105 162.548 28.3984C162.284 28.4863 162.05 28.6182 161.845 28.7939C161.649 28.96 161.493 29.1699 161.376 29.4238C161.259 29.6777 161.2 29.9756 161.2 30.3174C161.2 30.7959 161.347 31.2549 161.64 31.6943C161.942 32.124 162.318 32.5537 162.768 32.9834C163.217 33.4033 163.7 33.8281 164.218 34.2578C164.745 34.6875 165.233 35.1367 165.683 35.6055C166.132 36.0742 166.503 36.5771 166.796 37.1143C167.099 37.6416 167.25 38.2129 167.25 38.8281C167.25 39.3262 167.162 39.8145 166.986 40.293C166.811 40.7617 166.537 41.1816 166.166 41.5527C165.805 41.9238 165.336 42.2266 164.76 42.4609C164.193 42.6855 163.515 42.7979 162.724 42.7979C162.255 42.7979 161.815 42.7539 161.405 42.666C161.005 42.5781 160.634 42.4707 160.292 42.3438C159.96 42.207 159.657 42.0605 159.384 41.9043C159.12 41.7383 158.886 41.582 158.681 41.4355L158.827 38.6523H159.062C159.159 39.1113 159.306 39.5312 159.501 39.9121C159.696 40.293 159.936 40.6201 160.219 40.8936C160.512 41.1572 160.844 41.3672 161.215 41.5234C161.586 41.6699 161.991 41.7432 162.431 41.7432C163.153 41.7432 163.725 41.543 164.145 41.1426C164.574 40.7422 164.789 40.2197 164.789 39.5752C164.789 39.0576 164.643 38.584 164.35 38.1543C164.066 37.7148 163.705 37.2949 163.266 36.8945C162.826 36.4941 162.353 36.0938 161.845 35.6934C161.347 35.293 160.878 34.8682 160.438 34.4189C159.999 33.96 159.633 33.4619 159.34 32.9248C159.057 32.3779 158.915 31.7578 158.915 31.0645C158.915 30.498 159.018 29.9805 159.223 29.5117C159.438 29.0332 159.73 28.6279 160.102 28.2959C160.482 27.9541 160.932 27.6904 161.449 27.5049C161.967 27.3193 162.533 27.2266 163.148 27.2266C163.959 27.2266 164.633 27.3145 165.17 27.4902C165.717 27.6562 166.132 27.8174 166.415 27.9736L166.562 30.4053ZM175.878 41.5967C176.171 41.5967 176.459 41.543 176.742 41.4355C177.035 41.3281 177.313 41.1816 177.577 40.9961C177.851 40.8105 178.109 40.6006 178.354 40.3662C178.607 40.1221 178.842 39.8682 179.057 39.6045L179.203 39.6777L178.251 42.0361C178.134 42.0947 177.987 42.168 177.812 42.2559C177.646 42.334 177.44 42.4072 177.196 42.4756C176.962 42.5537 176.684 42.6172 176.361 42.666C176.039 42.7246 175.658 42.7539 175.219 42.7539C173.91 42.7539 172.89 42.4023 172.157 41.6992C171.435 40.9863 171.073 39.8779 171.073 38.374V28.6035L168.612 28.6914V27.4023C168.915 27.4219 169.276 27.4365 169.696 27.4463C170.116 27.4561 170.575 27.4609 171.073 27.4609C171.063 26.7676 171.044 26.1572 171.015 25.6299C170.995 25.0928 170.966 24.6289 170.927 24.2383C170.897 23.8379 170.858 23.501 170.81 23.2275C170.761 22.9541 170.712 22.7246 170.663 22.5391V22.4805H174.047V22.5391C173.988 22.7246 173.935 22.9541 173.886 23.2275C173.837 23.501 173.793 23.833 173.754 24.2236C173.725 24.6143 173.695 25.0781 173.666 25.6152C173.646 26.1426 173.632 26.7578 173.622 27.4609C174.237 27.4512 174.838 27.4414 175.424 27.4316C176.02 27.4121 176.557 27.3926 177.035 27.373C177.523 27.3438 177.934 27.3193 178.266 27.2998C178.607 27.2705 178.832 27.2461 178.939 27.2266L178.676 28.7207C178.178 28.7109 177.655 28.6963 177.108 28.6768C176.64 28.6572 176.103 28.6426 175.497 28.6328C174.892 28.623 174.267 28.6133 173.622 28.6035V38.6816C173.622 39.2871 173.686 39.7803 173.812 40.1611C173.949 40.5322 174.12 40.8252 174.325 41.04C174.54 41.2549 174.779 41.4014 175.043 41.4795C175.316 41.5576 175.595 41.5967 175.878 41.5967Z" fill="white"/>
<path d="M28.8454 20.2162C32.7814 20.2162 35.9838 17.0138 35.9838 13.0778C35.9838 9.14137 32.7814 5.93945 28.8454 5.93945C24.9094 5.93945 21.707 9.14184 21.707 13.0778C21.707 17.0138 24.909 20.2162 28.8454 20.2162ZM28.8454 9.24855C30.9566 9.24855 32.6747 10.9666 32.6747 13.0778C32.6747 15.189 30.9571 16.9071 28.8454 16.9071C26.7337 16.9071 25.0166 15.1895 25.0166 13.0778C25.0161 10.9666 26.7337 9.24855 28.8454 9.24855Z" fill="#D4F0F5"/>
<path d="M47.6488 20.2407C46.9291 19.1075 46.1017 18.0362 45.1791 17.043C45.0881 17.0513 44.993 17.0638 44.8978 17.0804C43.723 17.2749 42.5976 17.6181 41.543 18.1064C39.4872 19.0415 37.6998 20.5059 36.3472 22.3921C35.3419 23.7905 34.6305 25.3497 34.2332 27.0294C34.2166 27.0872 34.1999 27.1495 34.1879 27.2156L34.1588 27.3726C34.1214 27.5422 34.0886 27.7159 34.0678 27.8526L29.65 51.1337C29.3811 51.1462 29.1122 51.1503 28.8434 51.1503C28.5745 51.1503 28.3056 51.1462 28.0409 51.1337L23.6314 27.8938C23.6023 27.7201 23.5695 27.5464 23.5362 27.4018L23.503 27.2114C23.4905 27.1495 23.4739 27.0913 23.4572 27.0294C23.0599 25.3543 22.3485 23.7947 21.3433 22.3921C19.9615 20.4685 18.1538 19.029 16.1392 18.1106C14.9851 17.5812 13.7605 17.2255 12.5113 17.0476C11.5929 18.0404 10.7697 19.108 10.0541 20.2412C7.80796 23.7656 6.5708 27.9025 6.5708 32.1878C6.5708 44.4697 16.5651 54.4599 28.8424 54.4599C41.1239 54.4599 51.1182 44.4697 51.1182 32.1878C51.1196 27.8813 49.8866 23.7568 47.6488 20.2407ZM9.88083 32.1878C9.88083 27.9972 11.2709 23.9762 13.7485 20.7166C13.7526 20.7166 13.7526 20.7166 13.7526 20.7166C15.6638 21.3495 17.3971 22.5658 18.6546 24.3195C19.4279 25.395 19.9661 26.5947 20.2595 27.8896C20.2636 27.9104 20.2678 27.9349 20.2761 27.9557L20.2927 28.0467C20.3177 28.1751 20.3422 28.3031 20.3713 28.4726L24.5868 50.6657C16.177 48.73 9.88083 41.1805 9.88083 32.1878ZM33.1 50.6662L37.3233 28.4356C37.3441 28.3072 37.3686 28.1792 37.4018 28.018L37.4143 27.9561C37.4226 27.9312 37.4268 27.9104 37.4309 27.8901C37.7248 26.5952 38.2625 25.3954 39.0358 24.3199C40.2975 22.5575 42.035 21.3416 43.9503 20.7129C46.4241 23.9642 47.8096 27.9727 47.8096 32.1878C47.8101 41.1805 41.5143 48.73 33.1 50.6662Z" fill="#D4F0F5"/>
<path d="M28.8451 24.5516C29.3856 24.5516 29.824 24.1132 29.824 23.5727C29.824 23.0322 29.3856 22.5938 28.8451 22.5938C28.3046 22.5938 27.8662 23.0322 27.8662 23.5727C27.8662 24.1132 28.3046 24.5516 28.8451 24.5516Z" fill="white"/>
<path d="M28.8454 28.8183C29.5111 28.8183 30.0511 28.2787 30.0511 27.6125C30.0511 26.9468 29.5116 26.4072 28.8454 26.4072C28.1797 26.4072 27.6396 26.9468 27.6396 27.6125C27.6396 28.2787 28.1797 28.8183 28.8454 28.8183Z" fill="white"/>
<path d="M28.8455 30.6748C27.9534 30.6748 27.23 31.3978 27.23 32.2903C27.23 33.1824 27.9534 33.9058 28.8455 33.9058C29.7376 33.9058 30.461 33.1828 30.461 32.2903C30.461 31.3978 29.7376 30.6748 28.8455 30.6748Z" fill="white"/>
<path d="M28.8451 40.0283C28.3046 40.0283 27.8662 40.4667 27.8662 41.0072C27.8662 41.5478 28.3046 41.9862 28.8451 41.9862C29.3856 41.9862 29.824 41.5478 29.824 41.0072C29.824 40.4667 29.3856 40.0283 28.8451 40.0283Z" fill="white"/>
<path d="M28.8454 35.7607C28.1797 35.7607 27.6396 36.3003 27.6396 36.9665C27.6396 37.6322 28.1792 38.1722 28.8454 38.1722C29.5111 38.1722 30.0511 37.6327 30.0511 36.9665C30.0507 36.3008 29.5111 35.7607 28.8454 35.7607Z" fill="white"/>
</svg>

<svg version="1.2" xmlns="http://www.w3.org/2000/svg" viewBox="0 0 181 59" width="181" height="59"><style>tspan{white-space:pre}.a{fill:#d4f0f5}.b{fill:#fff}.c{font-size: 17px;fill: #f2f7f4;font-weight: 400;font-family: "CharisSIL", "Charis SIL"}</style><path class="a" d="m28.8 20.2c4 0 7.2-3.2 7.2-7.1 0-4-3.2-7.2-7.2-7.2-3.9 0-7.1 3.2-7.1 7.2 0 3.9 3.2 7.1 7.1 7.1zm0-11c2.2 0 3.9 1.8 3.9 3.9 0 2.1-1.7 3.8-3.9 3.8-2.1 0-3.8-1.7-3.8-3.8 0-2.1 1.7-3.9 3.8-3.9z"/><path class="a" d="m47.6 20.2q-1-1.7-2.4-3.2-0.2 0.1-0.3 0.1-1.8 0.3-3.4 1c-2 0.9-3.8 2.4-5.2 4.3q-1.5 2.1-2.1 4.6 0 0.1 0 0.2v0.2q-0.1 0.2-0.1 0.5l-4.5 23.2q-0.4 0.1-0.8 0.1-0.4 0-0.8-0.1l-4.4-23.2q0-0.3-0.1-0.5v-0.2q0-0.1 0-0.2-0.6-2.5-2.2-4.6c-1.3-1.9-3.1-3.4-5.2-4.3q-1.7-0.8-3.6-1.1-1.4 1.5-2.4 3.2c-2.3 3.6-3.5 7.7-3.5 12 0 12.3 10 22.3 22.2 22.3 12.3 0 22.3-10 22.3-22.3 0-4.3-1.2-8.4-3.5-12zm-37.7 12c0-4.2 1.4-8.2 3.8-11.5q0.1 0 0.1 0c1.9 0.6 3.6 1.9 4.9 3.6q1.1 1.6 1.6 3.6 0 0 0 0.1 0 0.2 0.1 0.5l4.2 22.2c-8.4-2-14.7-9.5-14.7-18.5zm23.2 18.5l4.2-22.3q0.1-0.1 0.1-0.4 0-0.1 0-0.1 0.5-2 1.6-3.6c1.3-1.7 3-3 5-3.6 2.4 3.3 3.8 7.3 3.8 11.5 0 9-6.3 16.5-14.7 18.5z"/><path class="b" d="m28.8 24.6c0.6 0 1-0.5 1-1 0-0.6-0.4-1-1-1-0.5 0-0.9 0.4-0.9 1 0 0.5 0.4 1 0.9 1z"/><path class="b" d="m28.8 28.8c0.7 0 1.3-0.5 1.3-1.2 0-0.7-0.6-1.2-1.3-1.2-0.6 0-1.2 0.5-1.2 1.2 0 0.7 0.6 1.2 1.2 1.2z"/><path class="b" d="m28.8 30.7c-0.8 0-1.6 0.7-1.6 1.6 0 0.9 0.8 1.6 1.6 1.6 0.9 0 1.7-0.7 1.7-1.6 0-0.9-0.8-1.6-1.7-1.6z"/><path class="b" d="m28.8 40c-0.5 0-0.9 0.5-0.9 1 0 0.5 0.4 1 0.9 1 0.6 0 1-0.5 1-1 0-0.5-0.4-1-1-1z"/><path class="b" d="m28.8 35.8c-0.6 0-1.2 0.5-1.2 1.2 0 0.6 0.6 1.2 1.2 1.2 0.7 0 1.3-0.6 1.3-1.2 0-0.7-0.6-1.2-1.3-1.2z"/><text style="transform:matrix(1,0,0,1,60,29)" ><tspan x="0" y="0" class="c">AURA </tspan><tspan  y="0" class="c">
</tspan><tspan x="0" y="20.4" class="c">Physiotherapy
</tspan></text></svg>
